packages/core/src/svgs/tokens/branded/ORARE.svg

<svg width="24" height="24" viewBox="0 0 24 24" fill="none" xmlns="http://www.w3.org/2000/svg">
<path fill-rule="evenodd" clip-rule="evenodd" d="M22 12C22 14.6522 20.9464 17.1957 19.0711 19.071C17.1957 20.9464 14.6522 22 12 22C9.34784 22 6.80429 20.9464 4.92892 19.071C3.05357 17.1957 2 14.6522 2 12C2 9.34785 3.05357 6.80429 4.92892 4.92892C6.80429 3.05357 9.34784 2 12 2C14.6522 2 17.1957 3.05357 19.0711 4.92892C20.9464 6.80429 22 9.34785 22 12ZM17.2765 18.3235C16.3901 19.0649 15.357 19.6108 14.245 19.925C13.1328 20.2393 11.9669 20.3149 10.8235 20.1471V13.1412C11.4529 12.7588 11.4235 11.9 11.4117 11.5176V6.87646C11.4117 6.83278 11.3944 6.79088 11.3636 6.76C11.3327 6.72911 11.2907 6.71175 11.247 6.71175C11.2043 6.71327 11.164 6.7313 11.1343 6.76203C11.1047 6.79274 11.0882 6.83378 11.0882 6.87646V11.5118L10.8235 11.647V6.87058C10.8236 6.82946 10.8077 6.78992 10.7791 6.7603C10.7506 6.73068 10.7117 6.71327 10.6706 6.71175C10.6284 6.71175 10.5881 6.72848 10.5583 6.75827C10.5285 6.78806 10.5118 6.82846 10.5118 6.87058V11.7H9.98237V6.87646C9.98237 6.85483 9.97811 6.83341 9.96974 6.81343C9.9615 6.79344 9.94943 6.77529 9.93405 6.76C9.91882 6.74471 9.9007 6.73257 9.88066 6.7243C9.86062 6.71602 9.83921 6.71175 9.81766 6.71175C9.77388 6.71312 9.73215 6.73075 9.70058 6.76119C9.66901 6.79163 9.64994 6.83273 9.64705 6.87646V11.647L9.37652 11.5118V6.87646C9.37721 6.85511 9.37378 6.83383 9.36609 6.81387C9.35841 6.79393 9.34688 6.77571 9.33205 6.76034C9.31723 6.74495 9.29952 6.73272 9.27976 6.72438C9.26013 6.71603 9.23899 6.71174 9.21764 6.71175C9.17551 6.71175 9.13512 6.72848 9.10534 6.75827C9.07555 6.78806 9.05881 6.82846 9.05881 6.87058V11.5176C9.05881 12.3176 9.25293 12.6941 9.43527 12.8295C9.5588 12.9176 9.59407 13.0411 9.61178 13.1118L9.62358 13.1412V19.8941C7.91924 19.381 6.42706 18.3295 5.37047 16.8973C4.31388 15.465 3.74975 13.7289 3.76257 11.9491C3.7754 10.1693 4.36449 8.44157 5.44161 7.02465C6.51873 5.60773 8.0259 4.57791 9.73737 4.0894C11.4489 3.60091 13.2726 3.68004 14.9353 4.31495C16.598 4.94985 18.0104 6.10636 18.9607 7.61125C19.9111 9.11615 20.3483 10.8884 20.2069 12.6627C20.0655 14.4368 19.3532 16.1175 18.1765 17.4529L13.3647 12.5706C13.8941 12.3353 14.9411 11.4529 14.9411 9.80587C14.9411 7.74116 13.1764 6.71175 12 6.71175V12.9588L17.2765 18.3294V18.3235Z" fill="black"/>
</svg>

<svg xmlns="http://www.w3.org/2000/svg" width="24" height="24" fill="none" viewBox="0 0 24 24">
    <path fill="#000" fill-rule="evenodd" d="M22 12a10 10 0 1 1-20 0 10 10 0 0 1 20 0m-4.724 6.323a8.2 8.2 0 0 1-6.453 1.824v-7.006c.63-.382.6-1.241.589-1.623V6.876a.165.165 0 0 0-.165-.164.165.165 0 0 0-.159.164v4.636l-.264.135V6.871a.16.16 0 0 0-.153-.16.16.16 0 0 0-.16.16V11.7h-.529V6.876a.16.16 0 0 0-.048-.116.163.163 0 0 0-.233.001.18.18 0 0 0-.054.115v4.771l-.27-.135V6.876a.16.16 0 0 0-.16-.164.16.16 0 0 0-.158.159v4.647c0 .8.194 1.176.376 1.311a.46.46 0 0 1 .177.283l.012.03v6.752a8.236 8.236 0 1 1 8.553-2.441l-4.812-4.882c.53-.236 1.576-1.118 1.576-2.765 0-2.065-1.765-3.094-2.941-3.094v6.247l5.276 5.37z" clip-rule="evenodd"/>
</svg>
